X: 6
T: After The Battle Of Aughrim
R: polka
M: 2/4
L: 1/8
K: Ador
| EA A/B/c/d/ e>d cA | BG G/F/G/A/ B/G/A/G/ ED | ~E2 A2 AB cd | e3 d c2 A2 | B2 G2 GF G>A | BG AG E/F/E D2 |E2 Az zB c>d | e2 a>b a2 g2 | e2 d2 Be dB | A2 A>^G A2 :|a2 e2 e2 g/f/e | za zg e2 fg | a>b af g>a ge | d2 c/B/A G2 fg |za ze e2 fg | ab ag e3 d | B2 e/f/e d2 B/c/B | A3 B A2 :|


Tune 1308	Setting 14636

